!!! OTL: Literature14
!!! Chapter: 5
!!! Section: I
!!! Page: 347
!!! Mode: 
!!! Encoder: DJB
**kern
*staff1
*I"Piano
=1-
*clefG2
*k[b-]
*F:
*M3/4
4cc\
8cc\L
8a\J
8f/L
8a/J
=2
4cc\
8cc\L
8a\J
4f/
=3
4b-\
8b-/L
8g/J
8e/L
8g/J
=4
4f/
8a/L
8f/J
4c/
=5
4cc\
8cc\L
8a\J
8f/L
8a/J
=6
4cc\
8cc\L
8a\J
4f/
=7
4b-\
8b-/L
8g/J
8e/L
8g/J
=8
4f/
4f/
4r
=9
4c/
4d/
4e/
=10
!!linebreak:original
4f/
4g/
4a/
=11
4b-\
8b-/L
8a/J
4g/
=12
4a/
8a/L
8g/J
4f/
=13
4c/
4d/
4e/
=14
4f/
4g/
4a/
=15
4b-\
8b-/L
8g/J
8e/L
8g/J
=16
4f/
4f/
4r
==
*-
